X:0496
M:6/8
L:1/8
Q:3/8=120
K:D
d|f2d    edB| d2B         BAF|EFE EFA|e3  efg|
  fed    edB| d2B         BAF|AFA d2D|DED D2:|

